packages/foundations/assets/icons/functional/images/communication/speech_bubble_exclamation_mark_16_filled.svg

<svg width="16" height="16" viewBox="0 0 16 16" fill="none" xmlns="http://www.w3.org/2000/svg">
<g clip-path="url(#clip0_2204_2312)">
<path fill-rule="evenodd" clip-rule="evenodd" d="M12.4549 1.59998C13.5529 1.59998 14.4 2.50533 14.4 3.59803V9.99803C14.4 11.0907 13.5058 11.9961 12.3921 11.9961H5.30193C5.19215 11.9961 5.09802 12.0429 5.01963 12.1209L2.96474 14.1658C2.80789 14.322 2.60389 14.4 2.41572 14.4C2.00789 14.4 1.59998 14.0722 1.59998 13.5883V3.59803C1.59998 2.50533 2.55691 1.59998 3.67061 1.59998H12.4549ZM8.00421 7.99998C7.53049 7.99998 7.11998 8.39121 7.11998 8.89208C7.11998 9.39295 7.53049 9.79998 8.00421 9.79998C8.50947 9.79998 8.91998 9.39295 8.91998 8.89208C8.91998 8.39121 8.50947 7.99998 8.00421 7.99998ZM8.79998 3.19998H7.19998V7.19608H8.79998V3.19998Z" fill="#1A1C1F"/>
</g>
<defs>
<clipPath id="clip0_2204_2312">
<rect width="16" height="16" fill="white"/>
</clipPath>
</defs>
</svg>

<svg xmlns="http://www.w3.org/2000/svg" width="16" height="16" fill="none"><g clip-path="url(#a)"><path fill="#1A1C1F" fill-rule="evenodd" d="M12.455 1.6c1.098 0 1.945.905 1.945 1.998v6.4a2.007 2.007 0 0 1-2.008 1.998h-7.09a.4.4 0 0 0-.282.125l-2.055 2.045a.8.8 0 0 1-.55.234.82.82 0 0 1-.815-.812v-9.99c0-1.093.957-1.998 2.07-1.998zM8.005 8a.89.89 0 0 0-.885.892c0 .501.41.908.884.908a.913.913 0 0 0 .916-.908A.9.9 0 0 0 8.004 8M8.8 3.2H7.2v3.996h1.6z" clip-rule="evenodd"/></g><defs><clipPath id="a"><path fill="#fff" d="M0 0h16v16H0z"/></clipPath></defs></svg>
